fs/bot_add_24_filled.svg

<svg viewBox="0 0 24 24" fill="none" xmlns="http://www.w3.org/2000/svg" height="1em" width="1em">
  <path d="M17.5004 11.9995C20.5379 11.9995 23.0004 14.4619 23.0004 17.4995C23.0004 20.5371 20.5379 22.9995 17.5004 22.9995C14.4628 22.9995 12.0004 20.5371 12.0004 17.4995C12.0004 14.4619 14.4628 11.9995 17.5004 11.9995ZM12.0226 13.9988C11.3755 15.0093 11.0004 16.2106 11.0004 17.4995C11.0004 19.1437 11.6108 20.6453 12.6175 21.79C11.8153 21.9308 10.9423 22.0006 10.0004 22.0006C7.11087 22.0006 4.87205 21.344 3.30918 20.0003C2.48056 19.2879 2.00391 18.2495 2.00391 17.1567V16.2494C2.00391 15.0068 3.01127 13.9994 4.25391 13.9994L12.0226 13.9988ZM17.5004 13.9987L17.4105 14.0068C17.2064 14.0438 17.0455 14.2048 17.0084 14.4089L17.0004 14.4987L17 16.9987L14.498 16.9995L14.4081 17.0076C14.204 17.0446 14.0431 17.2055 14.0061 17.4096L13.998 17.4995L14.0061 17.5894C14.0431 17.7935 14.204 17.9544 14.4081 17.9914L14.498 17.9995L17.001 17.9987L17.0015 20.503L17.0095 20.5929C17.0466 20.797 17.2075 20.9579 17.4116 20.9949L17.5015 21.003L17.5913 20.9949C17.7954 20.9579 17.9564 20.797 17.9934 20.5929L18.0015 20.503L18.001 17.9987L20.5049 17.9995L20.5948 17.9914C20.7989 17.9544 20.9598 17.7935 20.9969 17.5894L21.0049 17.4995L20.9969 17.4096C20.9598 17.2055 20.7989 17.0446 20.5948 17.0076L20.5049 16.9995L18 16.9987L18.0004 14.4987L17.9923 14.4089C17.9553 14.2048 17.7943 14.0438 17.5902 14.0068L17.5004 13.9987ZM10.0007 2C10.3804 2 10.6942 2.28215 10.7438 2.64823L10.7507 2.75L10.7499 3.499L14.2504 3.49951C15.493 3.49951 16.5004 4.50687 16.5004 5.74951V10.2541C16.5004 10.5552 16.4412 10.8426 16.3339 11.1051C15.2086 11.3078 14.1844 11.8013 13.3411 12.5043L5.75036 12.5041C4.50772 12.5041 3.50036 11.4967 3.50036 10.2541V5.74951C3.50036 4.50687 4.50772 3.49951 5.75036 3.49951L9.24991 3.499L9.2507 2.75C9.2507 2.40482 9.48388 2.11411 9.80132 2.02679L9.89893 2.00685L10.0007 2ZM7.74965 6.49951C7.05969 6.49951 6.50036 7.05883 6.50036 7.74879C6.50036 8.43876 7.05969 8.99808 7.74965 8.99808C8.43962 8.99808 8.99894 8.43876 8.99894 7.74879C8.99894 7.05883 8.43962 6.49951 7.74965 6.49951ZM12.2424 6.49951C11.5524 6.49951 10.9931 7.05883 10.9931 7.74879C10.9931 8.43876 11.5524 8.99808 12.2424 8.99808C12.9324 8.99808 13.4917 8.43876 13.4917 7.74879C13.4917 7.05883 12.9324 6.49951 12.2424 6.49951Z" fill="#212121"/>
</svg>

<svg viewBox="0 0 24 24" fill="none" xmlns="http://www.w3.org/2000/svg" height="1em" width="1em">
  <path d="M17.5 12a5.5 5.5 0 1 1 0 11 5.5 5.5 0 0 1 0-11Zm-5.477 1.999a6.47 6.47 0 0 0-1.023 3.5c0 1.645.61 3.146 1.617 4.291-.802.14-1.675.21-2.617.21-2.89 0-5.128-.656-6.69-2a3.75 3.75 0 0 1-1.306-2.843v-.908A2.25 2.25 0 0 1 4.254 14h7.769Zm5.477 0-.09.008a.5.5 0 0 0-.402.402l-.008.09v2.5h-2.502l-.09.009a.5.5 0 0 0-.402.402l-.008.09.008.09a.5.5 0 0 0 .402.401l.09.009 2.503-.001v2.504l.008.09a.5.5 0 0 0 .403.402l.09.008.09-.008a.5.5 0 0 0 .401-.402l.009-.09L18 17.999h2.504l.09-.008a.5.5 0 0 0 .402-.402l.008-.09-.008-.09a.5.5 0 0 0-.402-.401l-.09-.008L18 16.998v-2.5l-.008-.09a.5.5 0 0 0-.402-.402l-.09-.008ZM10 2a.75.75 0 0 1 .744.648l.007.102-.001.749h3.5a2.25 2.25 0 0 1 2.25 2.25v4.505c0 .301-.059.589-.166.851a6.46 6.46 0 0 0-2.993 1.4h-7.59a2.25 2.25 0 0 1-2.25-2.25V5.75A2.25 2.25 0 0 1 5.75 3.5l3.499-.001V2.75a.75.75 0 0 1 .551-.723l.098-.02L10 2ZM7.75 6.5a1.25 1.25 0 1 0 0 2.498 1.25 1.25 0 0 0 0-2.498Zm4.492 0a1.25 1.25 0 1 0 0 2.498 1.25 1.25 0 0 0 0-2.498Z" fill="#212121"/>
</svg>
